X:1
L:1/4
Q:1/4=200
M:6/8
V:1
V:2 clef=bass
K:F
[V:1] [F,A,D]/ z3/2 d/e/ | [Adf]3/4 z z/4 e/f/ | [cg]3/4 z/4 [cf]3/4 z/4 [cg]3/4 z/4 | [fa]3/4 z/4 [cg]3/4 z/4 [cf]3/4 z/4 |
[V:2] [D,,D,]3/4 z/4 [D,,D,]/ [D,,D,]/[D,,D,]/[D,,D,]/ | [D,,D,]3/4 z/4 [D,,D,]/ [D,,D,]/[D,,D,]/[D,,D,]/ | [C,,C,]3/4 z/4 [C,,C,]/ [C,,C,]/[C,,C,]/[C,,C,]/ | [F,,F,]3/4 z/4 [F,,F,]/ [F,,F,]/[F,,F,]/[F,,F,]/ |